X: 51
T: Spagna
M: 3/2
L: 1/8
V:1
K:C clef=treble-8 octave=2 
D,12| D,12| A,,12| G,,12| B,,12| 
A,,12| G,,12| G,,12| B,,12| C,12| 
D,12| D,12| F,12| E,12| D,12| 
F,12| G,12| G,12| C,12| D,12| C,12| 
B,,12| G,12| G,12| F,12| F,12| 
G,12| C,12| B,,12| _E,12| D,12| 
D,12| G,,12| A,,12| C,12| D,12|
F,12| _E,12| D,12| C,12| B,,12| 
A,,12| G,,12| D,12| G,,12|

